build/redact/ChangeFieldOutline.svg

<svg xmlns="http://www.w3.org/2000/svg" fill="none" viewBox="0 0 24 24" focusable="false"><path d="M0 0H24V24H0z" transform="matrix(1 0 0 -1 0 24)"/><path fill="#74767B" fill-rule="evenodd" d="M15.3476 7L14.0485 7C14.0485 5.34315 12.6995 4 11.0353 4L6.01324 4C4.34907 4 3 5.34315 3 7L3 17C3 18.6569 4.34907 20 6.01324 20L11.0353 20C12.6995 20 14.0485 18.6569 14.0485 17L14.0485 8.3L15.3476 8.3C15.7082 8.3 16.0005 8.00899 16.0005 7.65C16.0005 7.29102 15.7082 7 15.3476 7ZM11.0353 5.3L6.01324 5.3C5.07021 5.3 4.30574 6.06112 4.30574 7L4.30574 9.9771L12.7428 9.9771L12.7428 8.3L6.48121 8.3C6.12064 8.3 5.82834 8.00899 5.82834 7.65C5.82834 7.29102 6.12064 7 6.48121 7L12.7428 7C12.7428 6.06112 11.9783 5.3 11.0353 5.3ZM15.5172 15.4956C15.3823 15.3706 15.3067 15.1946 15.3092 15.0111C15.3117 14.8276 15.3919 14.6536 15.5302 14.5323L17.7643 12.5706C18.0347 12.3331 18.4472 12.3589 18.6857 12.6281C18.9242 12.8974 18.8984 13.3081 18.6279 13.5456L17.6275 14.424L19.0414 14.424C19.402 14.424 19.6943 14.1329 19.6943 13.774L19.6943 8.96912C19.6943 8.61013 19.402 8.31912 19.0414 8.31912L18.0077 8.31912C17.6471 8.31912 17.3548 8.0281 17.3548 7.66912C17.3548 7.31013 17.6471 7.01912 18.0077 7.01912L19.0414 7.01912C20.1231 7.01912 21 7.89216 21 8.96912L21 13.774C21 14.8509 20.1231 15.724 19.0414 15.724L17.6804 15.724L18.6409 16.6139C18.9049 16.8585 18.9197 17.2698 18.6741 17.5326C18.4285 17.7954 18.0154 17.8101 17.7514 17.5656L15.5172 15.4956ZM12.7428 11.2771L4.30574 11.2771L4.30574 17C4.30574 17.9389 5.07021 18.7 6.01324 18.7L11.0353 18.7C11.9783 18.7 12.7428 17.9389 12.7428 17L12.7428 11.2771ZM5.82834 13.6219C5.82834 13.9809 6.12064 14.2719 6.48121 14.2719L10.5675 14.2719C10.928 14.2719 11.2203 13.9809 11.2203 13.6219C11.2203 13.2629 10.928 12.9719 10.5675 12.9719L6.48121 12.9719C6.12064 12.9719 5.82834 13.2629 5.82834 13.6219ZM5.82834 16.3471C5.82834 16.7061 6.12064 16.9971 6.48121 16.9971L10.5675 16.9971C10.928 16.9971 11.2203 16.7061 11.2203 16.3471C11.2203 15.9881 10.928 15.6971 10.5675 15.6971L6.48121 15.6971C6.12064 15.6971 5.82834 15.9881 5.82834 16.3471Z"/></svg>

<svg xmlns="http://www.w3.org/2000/svg" fill="none" viewBox="0 0 24 24" focusable="false"><path fill="#74767B" fill-rule="evenodd" d="M15.34 7h-1.3c0-1.66-1.35-3-3.01-3H6.01C4.34 4 3 5.34 3 7v10c0 1.65 1.34 3 3.01 3h5.02a3.01 3.01 0 0 0 3.01-3V8.29h1.3c.36 0 .66-.29.66-.64 0-.36-.3-.65-.66-.65m-4.31-1.71H6.01c-.94 0-1.71.77-1.71 1.71v2.97h8.44V8.29H6.48c-.36 0-.66-.29-.66-.64 0-.36.3-.65.66-.65h6.26c0-.94-.77-1.71-1.71-1.71m4.48 10.2a.67.67 0 0 1-.21-.48c.01-.19.09-.36.23-.48l2.23-1.96a.65.65 0 0 1 .92.05c.24.27.21.68-.06.92l-1 .88h1.42c.36 0 .65-.29.65-.65V8.96c0-.35-.29-.65-.65-.65H18c-.36 0-.65-.29-.65-.65 0-.35.29-.65.65-.65h1.04c1.08 0 1.96.88 1.96 1.95v4.81c0 1.08-.88 1.95-1.96 1.95h-1.36l.96.89c.26.24.27.65.03.92a.65.65 0 0 1-.92.03zm-2.77-4.22H4.3V17c0 .93.77 1.7 1.71 1.7h5.02c.94 0 1.71-.77 1.71-1.7zm-6.92 2.35c0 .36.3.65.66.65h4.08c.36 0 .66-.29.66-.65s-.3-.65-.66-.65H6.48c-.36 0-.66.29-.66.65m0 2.72c0 .36.3.65.66.65h4.08c.36 0 .66-.29.66-.65s-.3-.65-.66-.65H6.48c-.36 0-.66.29-.66.65"/></svg>
